find-replace.svg

<svg fill="currentColor" viewBox="0 0 24 24"><path d="M11 6c1.38 0 2.63.56 3.54 1.46L12 10h6V4l-2.05 2.05A6.98 6.98 0 0 0 11 4c-3.53 0-6.43 2.61-6.92 6H6.1A5 5 0 0 1 11 6m5.64 9.14A6.9 6.9 0 0 0 17.92 12H15.9a5 5 0 0 1-4.9 4c-1.38 0-2.63-.56-3.54-1.46L10 12H4v6l2.05-2.05A6.98 6.98 0 0 0 11 18c1.55 0 3-.5 4.14-1.36L20 21.5l1.5-1.5z"/></svg>

<svg  viewBox="0 0 24 24" fill="currentColor"><path  d="M11,6C12.38,6 13.63,6.56 14.54,7.46L12,10H18V4L15.95,6.05C14.68,4.78 12.93,4 11,4C7.47,4 4.57,6.61 4.08,10H6.1C6.56,7.72 8.58,6 11,6M16.64,15.14C17.3,14.24 17.76,13.17 17.92,12H15.9C15.44,14.28 13.42,16 11,16C9.62,16 8.37,15.44 7.46,14.54L10,12H4V18L6.05,15.95C7.32,17.22 9.07,18 11,18C12.55,18 14,17.5 15.14,16.64L20,21.5L21.5,20L16.64,15.14Z"/></svg>
